!!!PDT:	1923
!!!LANG: Non-Tone
!!!LING_GROUP: Siouan
!!!REG: Dakotas
!!!COM: Anon.
!!!OTL: Horse Society Song (a)
!!!ODT: <1918//
!!!MPN: Marolipa [Buffalo Bull Head, Ben Benson]
!!!MLC: Fort Berthold Reservation, North Dakota, United States of America
!! Song was recorded during either the summer of 1912, 1915, or 1918.
!!!AGN: monody
!!!SOCIAL_FUNCTION: Mandan and Hidatsa Horse Society
!!!AMT: irregular
!!!RWG: Transcribed pitches, durations, and meters are only approximate.
!! Drum Tempo: MM104
!! Drum-rhythm: (4 4 4 4)
**kern
*ICvox
*Imale
*clefG2
*k[b-]
*M3/4
*MM104
8a
=1
4a
4a
4a
=2
(12a
12f
12a)
4f
(12f
12d
12c)
=3
4f
4f
4f
=4
(12a
12f
12a)
4f
(12f
12d
12c)
*M2/4
4c
(12c
12A
12A)
*M3/4
=5
4c
4c
4c
=6
(12d
12c
12d)
4c
(12c
12A
12c)
=7
8.A
16A
2A
=8
2A
8.d
16d
=9
4f
4f
4f
*M2/4
=10
4g
8.g
16a
=11
4f
(12a
12f)
12f
*M3/4
=12
(12f
12d
12c)
4c
(12c
12A)
12A
*M2/4
=13
4c
4c
=14
4c
4c
=15
(12c
12A
12c)
8.A
16A
=16
2A
=17
2A
==
*-
!!!CNT: Mandan
!!!TXO: Mandan
!!!OCY: United States
!!!OCL: Frances Densmore
!!!YOR: Frances Densmore, "Mandan and Hidatsa Music",
!!!YOR: Bulletin 80, page 143, No. 75
!!!PPR: Smithsonian Institution, Bureau of American Ethnology
!!!PPR: Government Printing Office
!!!PDT: 1923
!!!PPP: Washington, DC, United States of America
!!!YEC: Electronic Copyright 2000 David Huron
!!!YER: August 2000
!!!YEN: United States of America
!!!ENC: David Huron
!!!RDT: August 18, 2000
!!!EEV: Release 1.0
!!!AIN: tom, vox
